X: 41334
T: Turkey In The Straw
R: reel
M: 4/4
K: Gmajor
dBBc BAFG|ABAF ABde|fefg afde|feed egfe|
dBBc BAFG|ABAF ABde|faab afde|fdec d2||
faab afde|faab agfe|fabc' d'c'ba|babc' d'2 bc'|
d'c'd'b ad'ba|faed B2 de|faed BAFG|Adde d2||
GEEF EDB,C|DEDB, DEGA|BABc dBGA|BAAG AcBA|
GEEF EDB,C|DEDB, DEGA|Bdde dBGA|BGAF G2|
Bdde dBGA|Bdde dcBA|Bdef gfed|edef g2 ef|
gfge dged|BdAG E2 GA|BdAG EDB,C|DGGA G2||

